X:1
T:Avondale, 11.11.11.11.11.11
T:George F. Cawthorne, before 1913
T:Avondale, 11.11.11.11.11.11
T:Public Domain
C:George F. Cawthorne, before 1913
Z:Public Domain
%%score ( 1 2 ) ( 3 4 )
L:1/8
M:3/4
K:C
V:1 treble 
V:2 treble 
V:3 bass 
V:4 bass 
V:1
 [Ec]2 [Ec] [^DB]2 [DA] | [EG]3 [CE]3 | (DE) [CF] [B,E]2 [B,D] | [CE]6 | [DE]2 [DE] [D^F]2 [D^G] | %5
 [CA]3 [CE]3 | [DB]2 [DG](^F G)[DA] x | [DG]6 | [FG]2 [FG] [FA]2 [FB] | [EA]3 [EG]3 | %10
 [DG]2 [CG] [DG]2 [B,F] | (C3 D3) | [CE]2 [CE] [EA]2 [Fc] | [Ge]3 [Gc]3 | [FB]2 [FA] [FG]2 [FA] | %15
 [FB]6 | [Ec]2 [Ec] [^DB]2 [DA] | [EG]3 [CE]3 | [^CE]2 [CA] [DA]2 [EG] | (D3 C3) | %20
 [B,G]2 [DG] [GB]2 [FB] | [Ec]3 [^Dc]3 | (cB) [EA] [FG]2 [Fd] | [Ec]6 |] %24
V:2
 x6 | x6 | C2 x4 | x6 | x6 | x6 | x3 D4 | x6 | x6 | x6 | x6 | E6 | x6 | x6 | x6 | x6 | x6 | x6 | %18
 x6 | F6 | x6 | x6 | E2 x4 | x6 |] %24
V:3
 [C,G,]2 [C,G,] [C,^F,]2 [C,F,] | [C,G,]3 [E,G,]3 | (F,E,) [D,A,] G,2 [G,,G,] | [C,G,]6 | %4
 [B,,^G,]2 [E,G,] [E,A,]2 [E,B,] | [A,,A,]3 [A,,A,]3 | [D,G,]2 [D,B,](A, B,)[D,C] x | [G,,B,]6 | %8
 [G,B,]2 [G,B,] [G,C]2 [G,D] | [G,C]3 [G,C]3 | [G,,B,]2 [A,,A,] [B,,G,]2 [G,,G,] | %11
 ([C,G,]3 [B,,^G,]3) | [A,,A,]2 [A,,A,] [A,C]2 [_A,C] | [G,C]3 [G,E]3 | %14
 [G,,D]2 [G,,C] [G,,B,]2 [G,,C] | [G,D]6 | [C,C]2 [C,G,] [C,^F,]2 [C,F,] | [C,G,]3 (C,2 _B,,) | %18
 [A,,A,]2 [A,,E,] [B,,A,]2 [^C,A,] | [D,A,]6 | [G,,G,]2 [G,,B,] [G,D]2 [^G,D] | [A,C]3 [^F,A,]3 | %22
 G,2 [G,C] [G,B,]2 [G,B,] | [C,C]6 |] %24
V:4
 x6 | x6 | A,2 G,2 x2 | x6 | x6 | x6 | x3 D,2 x2 | x6 | x6 | x6 | x6 | x6 | x6 | x6 | x6 | x6 | %16
 x6 | x3 G,3 | x6 | x6 | x6 | x6 | G,2 x4 | x6 |] %24

